X:313
T: Mrs Garden of Troups Strathspey
R: strathspey
M: C
L: 1/16
K: G
f |\
g2(dB) G2(GB) | e2(ed) B2(Bd) | g2(dB) G2(GB) |\
g2(dB) G2(GB) | e2(ed) B2(Bd) | g2(dB) G2(GB) |\
g2(dB) G2(GB) | e2(ed) B2(Bd) | g2(dB) G2(GB) |\
GBD G2(GB) | d2(gf) B2Gd | GBD DGB | E2G2 F2 :|
d |\
g2(dB) G2(GB) | d2(gf) B2g | g2(dB) G2(GB) |\
gdb AFFA | BGAE FDD :|

Sample 3


